packages/foundations/assets/icons/functional/images/editing/save_28.svg

<svg xmlns="http://www.w3.org/2000/svg" width="28" height="28" fill="none"><g clip-path="url(#a)"><path fill="#1A1C1F" fill-rule="evenodd" d="M21.438 1.75c.193 0 .432.103.584.22l3.972 3.974c.136.137.256.416.256.604v17.077c0 1.398-1.246 2.625-2.625 2.625H4.375c-1.398 0-2.625-1.248-2.625-2.625V4.375c0-1.398 1.182-2.625 2.625-2.625zM7 3.5H4.375a.895.895 0 0 0-.875.875v19.25c0 .449.442.875.875.875H7v-9.625c0-.449.422-.875.875-.875h12.25c.449 0 .875.435.875.875V24.5h2.625c.449 0 .875-.445.875-.875v-16.7L21.074 3.5H17.5v4.375c0 .449-.436.875-.875.875h-8.75C7.426 8.75 7 8.337 7 7.875zm12.25 12.25H8.75v8.75h10.5zM15.75 3.5h-7V7h7z" clip-rule="evenodd"/></g><defs><clipPath id="a"><path fill="#fff" d="M0 0h28v28H0z"/></clipPath></defs></svg>

<svg width="28" height="28" viewBox="0 0 28 28" fill="none" xmlns="http://www.w3.org/2000/svg">
<g clip-path="url(#clip0_83_277)">
<path fill-rule="evenodd" clip-rule="evenodd" d="M21.438 1.75C21.631 1.75 21.87 1.853 22.022 1.97L25.994 5.944C26.13 6.081 26.25 6.36 26.25 6.548V23.625C26.25 25.023 25.004 26.25 23.625 26.25H4.375C2.977 26.25 1.75 25.002 1.75 23.625V4.375C1.75 2.977 2.932 1.75 4.375 1.75H21.438ZM7 3.5H4.375C4.14454 3.5051 3.92492 3.59892 3.76192 3.76192C3.59892 3.92492 3.5051 4.14454 3.5 4.375V23.625C3.5 24.074 3.942 24.5 4.375 24.5H7V14.875C7 14.426 7.422 14 7.875 14H20.125C20.574 14 21 14.435 21 14.875V24.5H23.625C24.074 24.5 24.5 24.055 24.5 23.625V6.925L21.074 3.5H17.5V7.875C17.5 8.324 17.064 8.75 16.625 8.75H7.875C7.426 8.75 7 8.337 7 7.875V3.5ZM19.25 15.75H8.75V24.5H19.25V15.75ZM15.75 3.5H8.75V7H15.75V3.5Z" fill="#1A1C1F"/>
</g>
<defs>
<clipPath id="clip0_83_277">
<rect width="28" height="28" fill="white"/>
</clipPath>
</defs>
</svg>
